X:412
T:German folk song
T:(A maiden with dark blonde hair)
C:anon.
O:Germany
Z:Transcribed by Frank Nordberg - http://www.musicaviva.com
F:http://abc.musicaviva.com/tunes/germany/german-folk-song.abc
%Sorry I haven't got the original title for this. Can anyone help?
M:C
L:1/4
K:F
F|"F"FF"C"G"F"A|"Bb"B>A"C7"GB|"F"AF"C7"GG|"F"F2z:|F|
"C7"GABG|"F"ABcc|"Bb"d"F"c"C"c"G7"=B|"C"c2z|:G|
"C"cc"F"A/B/ c/A/|"Gm7"BAGF|"F"AF"C7"GG|"F"F2z:|
W:
W:
W:  From Musica Viva - http://www.musicaviva.com
W:  the Internet center for free sheet music downloads.

